!!!COM:	la Rue, Pierre de
!!!CDT:	~1452///-1518/11/20
!!!OPR:	Missa Assumpta est Maria
!!!ONM:	4
!!!OTL:	Sanctus
!!!AGN:	Mass; Sanctus
!!!SCT:	Rue1003d
!!!SCA:	Rue1003d
!!!voices:	4
**kern	**kern	**kern	**kern
*staff4	*staff3	*staff2	*staff1
*Ivox	*Ivox	*Ivox	*Ivox
*I"Bassus	*I"Tenor	*I"Contra	*I"Discantus
*I'B	*I'T	*I'C	*I'D
*>[A,B,C,D,E]	*>[A,B,C,D,E]	*>[A,B,C,D,E]	*>[A,B,C,D,E]
*>A	*>A	*>A	*>A
*clefF4	*clefF4	*clefGv2	*clefGv2
*k[b-]	*k[b-]	*k[b-]	*k[b-]
*M3/1	*M3/1	*M3/1	*M3/1
*met(O)	*met(O)	*met(O)	*met(O)
!!section: Sanctus
!!!OMD: Sanctus
=1-	=1-	=1-	=1-
0C	0C	0G	0c
[1FF	1C	1A	1c
=2	=2	=2	=2
1FF]	0C	0c	0A
0C	.	.	.
.	1E	1A	1c
=3	=3	=3	=3
0BB-	0.F	2.B-\	1d
.	.	4c\	.
.	.	4d\	1.f
.	.	4c\	.
.	.	4B-\	.
.	.	4A/	.
1D	.	1B-	.
.	.	.	2e\
=4	=4	=4	=4
0C	0.G	1.c	1e
.	.	.	1.g
.	.	4B-\	.
.	.	4A/	.
1GG	.	1B-	.
.	.	.	2e\
=5	=5	=5	=5
1C	1G	1c	0.e
2C/	2G\	2r	.
2.AA/	1A	1c	.
4BB-/	.	.	.
[2C/	4G\	2c\	.
.	4F\	.	.
=6	=6	=6	=6
2C/]	2E\	2A/	1r
2GG/	1G	2.d\	.
2BB-/	.	.	1r
.	.	4c\	.
2D\	2.F\	1B-	.
1C	.	.	1c
.	4E\	.	.
.	2E\	2A/	.
=7	=7	=7	=7
1BB-	0.F	1B-	0d
1D	.	2B-\	.
.	.	1A	.
4D\	.	.	1f
4C/	.	.	.
4BB-/	.	2A/	.
4AA/	.	.	.
=8	=8	=8	=8
0GG	0.r	0B-	1g
.	.	.	4g\
.	.	.	4f\
.	.	.	4e\
.	.	.	4d\
1AA	.	2c\	2c\
.	.	[2F/	2d\
=9	=9	=9	=9
1BB-	0.r	2F/]	0d
.	.	2.G/	.
0GG	.	.	.
.	.	4F/	.
.	.	2D/	.
.	.	1E	1B-
=10	=10	=10	=10
1FF	0.r	2F/	2A/
.	.	2.A/	1c
2AA/	.	.	.
.	.	4G/	.
2BB-/	.	1F	4B-\
.	.	.	4A/
1C	.	.	1G
.	.	2E/	.
=11	=11	=11	=11
0FF	0.F	0F	0F
1r	.	[1c	[1A
=12	=12	=12	=12
[0.C	0.E	0.c]	1A]
.	.	.	0G
=13	=13	=13	=13
1C]	0.C	1G	0c
0FF	.	1.A	.
.	.	.	[1A
.	.	2F/	.
=14	=14	=14	=14
0DD	0D	0F	1A]
.	.	.	0d
[1D	[1F	[1A	.
=15	=15	=15	=15
1D]	0.F]	1A]	0f
0BB-	.	0B-	.
.	.	.	[1d
=16	=16	=16	=16
0GG	0G	0.d	1d]
.	.	.	0B-
[1D	[1F	.	.
=17	=17	=17	=17
1D]	1F]	1A	0f
0BB-	0D	1B-	.
.	.	1F	[1d
=18	=18	=18	=18
0GG	0D	0B-	1d]
.	.	.	0g
1EE	1C	1G	.
=19	=19	=19	=19
1DD	0D	1r	0f
0BB-	.	1d	.
.	[1F	1B-	1d
=20	=20	=20	=20
1AA	0.F]	1c	0c
0FF	.	0A	.
.	.	.	[1f
=21	=21	=21	=21
0BB-	0.F	1d	1f]
.	.	1B-	1d
1D	.	2.A/	1f
.	.	4B-\	.
=22	=22	=22	=22
2C/	0G	2c\	2e\
2GG/	.	2B-\	2.d\
1C	.	2c\	.
.	.	.	4c\
.	.	2C/	1c
1GG	1r	1D	.
.	.	.	2Bni\
=23	=23	=23	=23
0.r	1.E	2C/	0c
.	.	2G/	.
.	.	2A/	.
.	2C/	1c	.
.	1D	.	1r
.	.	2Bni\	.
=24	=24	=24	=24
1r	2.C/	0c	2.e\
.	4D\	.	4f\
1r	2E\	.	2g\
.	1F	.	1a
1C	.	1r	.
.	2E\	.	2g\
=25	=25	=25	=25
0FF	1.F	1c	1a
.	.	1A	2a\
.	2.D\	.	2.f\
1BB-	.	2.B-\	.
.	4E\	.	4e\
.	2F\	.	[2d\
.	.	4A/	.
=26	=26	=26	=26
0BB-	2.D\	2F/	2d\]
.	.	1B-	2f\
.	4E\	.	.
.	2F\	.	2d\
.	2D\	2B-\	2f\
[1C	[1G	2G/	2e\
.	.	[2c\	2c\
=27	=27	=27	=27
1C]	2G\]	2c\]	1.g
.	2C/	2c\	.
1GG	1G	2.B-\	.
.	.	.	2e\
.	.	4A/	.
1D	1A	1F	2.f\
.	.	.	4g\
=28	=28	=28	=28
2C/	2r	1r	2e\
2BB-/	2.G\	.	2.d\
1C	.	1r	.
.	4F\	.	4c\
.	2E\	.	1c
1GG	1D	[1G	.
.	.	.	2B-\
=29	=29	=29	=29
2r	1C	1G]	2c\
2C/	.	.	2e\
2.BB-/	2.F\	1B-	2.d\
4AA/	4G\	.	2f\
4FF/	4A\	2.c\	.
4GG/	4G\	.	4e\
4AA-/	4E\	.	4c\
4GG/	4F\	4B-\	4d\
=30	=30	=30	=30
2EE-i/	2G\	2B-\	2e-i\
2FF/	2F\	2A/	1d
2GG/	2E-i\	2G/	.
2AA-i/	2C/	2F/	2.c\
1GG	1D	1G	.
.	.	.	4A/
.	.	.	2Bni\
=31	=31	=31	=31
*^	*	*	*
0.CCl\	0.Cl/	0.Cl	0.Gl	0.cl
*v	*v	*	*	*
!!LO:LB:i:g=z
=32||	=32||	=32||	=32||
!!section: Pleni sunt celi
!!!OMD:	Pleni sunt celi
*>B	*>B	*>B	*>B
*clefF4	*clefF4	*clefGv2	*clefGv2
*k[b-]	*k[b-]	*k[b-]	*k[b-]
*M3/1	*M3/1	*M3/1	*M3/1
*met(O)	*met(O)	*met(O)	*met(O)
0C	0.r	1c	0.r
.	.	2.c\	.
.	.	4B-\	.
1C	.	2A/	.
.	.	[2G/	.
=33	=33	=33	=33
1BB-	0.r	4G/]	0.r
.	.	4F/	.
.	.	2D/	.
2.C/	.	2E/	.
.	.	2.C/	.
4BB-/	.	.	.
2AA/	.	.	.
.	.	4D/	.
2GG/	.	2E/	.
=34	=34	=34	=34
2GG/	0.r	2D/	0.r
2.C/	.	2C/	.
.	.	1G	.
4BB-/	.	.	.
2GG/	.	.	.
2AA/	.	2F/	.
[2FF/	.	[2A/	.
=35	=35	=35	=35
4FF/]	0.r	4A/]	0.r
4GG/	.	4B-\	.
2AA/	.	2.c\	.
2GG/	.	.	.
.	.	4B-\	.
2FF/	.	4A/	.
.	.	4G/	.
1C	.	2A/	.
.	.	[2G/	.
=36	=36	=36	=36
2BB-/	0.r	4G/]	0.r
.	.	4B-\	.
2D\	.	1A	.
4C/	.	.	.
4BB-/	.	.	.
4AA/	.	1G	.
4GG/	.	.	.
1AA	.	.	.
.	.	2F#i/	.
=37	=37	=37	=37
1GG	0.r	0.G	0.r
2r	.	.	.
2.GG/	.	.	.
4AA/	.	.	.
2BB-/	.	.	.
=38	=38	=38	=38
2C/	0.r	2r	0.r
2.D\	.	2.F/	.
4C/	.	4G/	.
2AA/	.	2A/	.
2D\	.	2B-\	.
2C/	.	[2c\	.
=39	=39	=39	=39
1E	0.r	4c\]	0.r
.	.	4B-\	.
.	.	2G/	.
2.D\	.	2F/	.
.	.	1B-	.
4C/	.	.	.
4BB-/	.	.	.
4AA/	.	.	.
2GG/	.	2B-\	.
=40	=40	=40	=40
2FF/	0.r	2.A/	0.r
1C	.	.	.
.	.	4G/	.
.	.	4F/	.
.	.	4E/	.
2BB-/	.	2D/	.
2.C/	.	2C/	.
.	.	[2G/	.
4BB-/	.	.	.
=41	=41	=41	=41
2C/	0.r	2G/]	0.r
2D\	.	2F/	.
2E\	.	2.G/	.
2.C/	.	.	.
.	.	4F/	.
.	.	2G/	.
4BB-/	.	.	.
2C/	.	2A/	.
=42	=42	=42	=42
2D\	0.r	2B-\	0.r
2E\	.	1G	.
1C	.	.	.
.	.	1c	.
1D	.	.	.
.	.	2Bni\	.
=43	=43	=43	=43
0.Cl	0.r	0.cl	0.r
!!LO:LB:i:g=z
=44||	=44||	=44||	=44||
*>C	*>C	*>C	*>C
*clefF4	*clefF4	*clefGv2	*clefGv2
*k[b-]	*k[b-]	*k[b-]	*k[b-]
*M3/1	*M3/1	*M3/1	*M3/1
*met(O)	*met(O)	*met(O)	*met(O)
!!section: Gloria tua
!!!OMD: Gloria tua
0.r	1r	0.r	1.c
.	1r	.	.
.	.	.	2c\
.	[1G	.	1e
=45	=45	=45	=45
0.r	2G\]	0.r	1d
.	2G\	.	.
.	1A	.	2.c\
.	.	.	4d\
.	1G	.	2e\
.	.	.	[2d\
=46	=46	=46	=46
0.r	0F	0.r	2d\]
.	.	.	4c\
.	.	.	4B-\
.	.	.	1A
.	1F	.	2r
.	.	.	[2d\
=47	=47	=47	=47
0.r	1G	0.r	2d\]
.	.	.	2e\
.	2A\	.	2f\
.	2G\	.	2.g\
.	1B-	.	.
.	.	.	4f\
.	.	.	4e\
.	.	.	4d\
=48	=48	=48	=48
0.r	2.A\	0.r	2c\
.	.	.	1f
.	4D\	.	.
.	2.A\	.	.
.	.	.	2.e\
.	4F\	.	.
.	1G	.	.
.	.	.	4c\
.	.	.	2d\
=49	=49	=49	=49
0.r	1C	0.r	2e\
.	.	.	1c
.	1F	.	.
.	.	.	1f
.	2D\	.	.
.	[2G\	.	[2e\
=50	=50	=50	=50
0.r	4G\]	0.r	4e\]
.	4F\	.	4c\
.	4E\	.	2d\
.	4D\	.	.
.	2C/	.	2e\
.	1F	.	2c\
.	.	.	2f\
.	2G\	.	[2e\
=51	=51	=51	=51
0.r	2A\	0.r	4e\]
.	.	.	4c\
.	2B-\	.	2d\
.	2G\	.	2e\
.	2.A\	.	2.f\
.	4G\	.	4e\
.	4F\	.	4d\
.	4E\	.	4c\
=52	=52	=52	=52
0.r	2F\	0.r	2d\
.	2G\	.	2.e\
.	1C	.	.
.	.	.	4d\
.	.	.	1c
.	1D	.	.
.	.	.	2Bni\
=53	=53	=53	=53
0.r	0.Cl	0.r	0.cl
!!LO:LB:i:g=z
=54||	=54||	=54||	=54||
*>D	*>D	*>D	*>D
*clefF4	*clefF4	*clefGv2	*clefGv2
*k[b-]	*k[b-]	*k[b-]	*k[b-]
*M2/1	*M2/1	*M2/1	*M2/1
*met(C|)	*met(C|)	*met(C|)	*met(C|)
!!section: Osanna
!!!OMD: Osanna
[0C	[0C	[0G	[0c
=55	=55	=55	=55
1C]	0C]	1G]	1c]
1FF	.	1c	1A
=56	=56	=56	=56
0FF	0C	[0c	0A
=57	=57	=57	=57
[0C	[0E	0c]	1A
.	.	.	[1G
=58	=58	=58	=58
0C]	0E]	1r	1G]
.	.	1G	[1c
=59	=59	=59	=59
1FF	0F	1.A	0c]
[1F	.	.	.
.	.	2F/	.
=60	=60	=60	=60
2F\]	0F	1A	1d
2E\	.	.	.
1D	.	1B-	1f
=61	=61	=61	=61
0C	[0G	1c	1e
.	.	2.G/	[1g
.	.	4A/	.
=62	=62	=62	=62
0GG	0G_	2B-\	2g\]
.	.	1c	4f\
.	.	.	4e\
.	.	.	1d
.	.	2Bni\	.
=63	=63	=63	=63
0C	0G]	[0c	0e
=64	=64	=64	=64
2C/	[0A	1c]	1e
1AA	.	.	.
.	.	1F	[1c
2FF/	.	.	.
=65	=65	=65	=65
1FF	0A]	0c	2c\]
.	.	.	2F/
[1F	.	.	1F
=66	=66	=66	=66
2F\]	0F	1r	2r
4E\	.	.	2f\
4D\	.	.	.
1F	.	[1c	2d\
.	.	.	[2f\
=67	=67	=67	=67
1.C	[0G	2c\]	2f\]
.	.	4B-\	4e\
.	.	4A/	4d\
.	.	2G/	2e\
4BB-/	.	2c\	[2g\
4AA/	.	.	.
=68	=68	=68	=68
2GG/	0G]	2B-\	2g\]
2AA/	.	2c\	1f
2BB-/	.	2d\	.
2C/	.	2c\	2e\
=69	=69	=69	=69
0FF	0F	2A/	[0f
.	.	2.c\	.
.	.	4B-\	.
.	.	4A/	.
.	.	4G/	.
=70	=70	=70	=70
1r	1r	1F	0f]
1D	1F	2A/	.
.	.	2B-\	.
=71	=71	=71	=71
1C	1E	1.c	0r
1AA	1C	.	.
.	.	4B-\	.
.	.	4A/	.
=72	=72	=72	=72
2.BB-/	2.D\	2G/	0r
.	.	1F	.
4C/	4E\	.	.
2D\	2F\	.	.
[2GG/	[2G\	[2B-\	.
=73	=73	=73	=73
2GG/]	2G\]	2B-\]	1r
2.D\	1F	1A	.
.	.	.	1d
4C/	.	.	.
2BB-/	2D\	2G/	.
=74	=74	=74	=74
1AA	4E\	4A/	1c
.	4D\	4G/	.
.	4C/	4F#i/	.
.	4BB-/	4E/	.
1AA	1C	1F#i	1A
=75	=75	=75	=75
[0GG	[0D	0G	2.B-\
.	.	.	4c\
.	.	.	2d\
.	.	.	[2G/
=76	=76	=76	=76
0GG]	0D]	2r	2G/]
.	.	2.B-\	2.d\
.	.	4A/	4c\
.	.	2G/	2B-\
=77	=77	=77	=77
2r	0r	0F	2A/
2.D\	.	.	2.f\
4C/	.	.	4e\
2BB-/	.	.	2d\
=78	=78	=78	=78
2AA/	0F	1r	2c\
2BB-/	.	.	2F/
[1FF	.	[1c	[1a
=79	=79	=79	=79
1FF]	0F	1c]	2a\]
.	.	.	2g\
1F	.	2.A/	1f
.	.	4B-\	.
=80	=80	=80	=80
2.C/	[0G	1c	2.e\
4BB-/	.	.	4f\
2GG/	.	2B-\	2g\
[2C/	.	2c\	2e\
=81	=81	=81	=81
2C/]	0G_	1G	1d
2BBni/	.	.	.
1C	.	2C/	2c\
.	.	[2G/	[2e\
=82	=82	=82	=82
1r	0G]	2G/]	2e\]
.	.	2F/	1d
1C	.	1E	.
.	.	.	2c#i\
=83	=83	=83	=83
1.F	0A	0D	1d
.	.	.	[1f
2D\	.	.	.
=84	=84	=84	=84
1.D	0F	0r	2f\]
.	.	.	2d\
.	.	.	[1d
2GG/	.	.	.
=85	=85	=85	=85
0GG	0G	0D	2d\]
.	.	.	2B-\
.	.	.	1B-
=86	=86	=86	=86
0AA	1E	0C	2r
.	.	.	1c
.	1F	.	.
.	.	.	2A/
=87	=87	=87	=87
2.GG/	0G	1.D	2.B-\
4AA/	.	.	4c\
2BB-/	.	.	2d\
2C/	.	[2C/	2e\
=88	=88	=88	=88
2FF/	1A	2C/]	2f\
1F	.	2D/	1d
.	2G\	2BB-/	.
2E\	[2G\	2C/	[2c\
=89	=89	=89	=89
1D	2G\]	1D	2c\]
.	2F\	.	2B-\
1C	[1G	1E	2c\
.	.	.	2e\
=90	=90	=90	=90
1GG	1G]	2r	2d\
.	.	1.D	1g
1D	1A	.	.
.	.	.	2f\
=91	=91	=91	=91
1r	1G	2E/	1e
.	.	2C/	.
[1BB-	[1F	2F/	[1d
.	.	[2B-\	.
=92	=92	=92	=92
2BB-/]	2F\]	2B-\]	2d\]
2C/	2E\	2A/	2c\
1AA	1C	1F	[1c
=93	=93	=93	=93
0GG	0D	0G	1c]
.	.	.	1Bni
=94	=94	=94	=94
0Cl	0Cl	0Gl	0cl
!!LO:LB:i:g=z
=95||	=95||	=95||	=95||
*>E	*>E	*>E	*>E
*clefF4	*clefF4	*clefGv2	*clefGv2
*k[b-]	*k[b-]	*k[b-]	*k[b-]
*M2/1	*M2/1	*M2/1	*M2/1
*met(C|)	*met(C|)	*met(C|)	*met(C|)
!!section: Benedictus and Osanna II
!!!OMD: Benedictus and Osanna II
0C	0C	0r	0r
=96	=96	=96	=96
1C	1E	0r	0r
1D	1F	.	.
=97	=97	=97	=97
2E-i\	0G	0r	0r
4D\	.	.	.
4C/	.	.	.
2BB-/	.	.	.
[2C/	.	.	.
=98	=98	=98	=98
2C/]	0C	0r	0r
1FF	.	.	.
[2C/	.	.	.
=99	=99	=99	=99
2C/]	0G	0r	0r
2BB-/	.	.	.
2C/	.	.	.
[2E-i\	.	.	.
=100	=100	=100	=100
4E-\]	1F	0r	0r
4D\	.	.	.
1D	.	.	.
.	1E	.	.
2C/	.	.	.
=101	=101	=101	=101
0D	2D\	0r	0r
.	2.F\	.	.
.	4G\	.	.
.	2A\	.	.
=102	=102	=102	=102
2r	2D\	0r	0r
2.BB-/	1G	.	.
4C/	.	.	.
2D\	2F\	.	.
=103	=103	=103	=103
2GG/	2G\	0r	0r
1C	2.E\	.	.
.	4F\	.	.
2BB-/	2G\	.	.
=104	=104	=104	=104
1.C	2C/	0r	0c
.	1G	.	.
[2AA/	[2A\	.	.
=105	=105	=105	=105
4AA/]	2A\]	0r	1e
4BB-/	.	.	.
2C/	1G	.	.
2FF/	.	.	1f
2AA/	[2F\	.	.
=106	=106	=106	=106
0GG	2F\]	0r	0g
.	4E\	.	.
.	4D\	.	.
.	1E	.	.
=107	=107	=107	=107
0FF	0F	0A	0c
=108	=108	=108	=108
0r	0r	1B-	0g
.	.	1c	.
=109	=109	=109	=109
0r	0r	2A/	1f
.	.	1d	.
.	.	.	1e
.	.	2c#i\	.
=110	=110	=110	=110
0r	0r	0d	2d\
.	.	.	2.f\
.	.	.	4g\
.	.	.	2a\
=111	=111	=111	=111
0r	0r	2r	2d\
.	.	2.B-\	1g
.	.	4c\	.
.	.	2d\	2f\
=112	=112	=112	=112
0r	0r	2G/	2g\
.	.	1c	2.e\
.	.	.	4f\
.	.	2B-\	2g\
=113	=113	=113	=113
0F	0r	1c	0c
.	.	2c\	.
.	.	[2A/	.
=114	=114	=114	=114
0F	0r	4A/]	0r
.	.	4B-\	.
.	.	2c\	.
.	.	2F/	.
.	.	2A/	.
=115	=115	=115	=115
1E	1r	1G	0r
[1F	[1F	4F/	.
.	.	4G/	.
.	.	4A/	.
.	.	4B-\	.
=116	=116	=116	=116
2F\]	1F]	2c\	0r
2.D\	.	1d	.
.	[1F	.	.
4E\	.	.	.
2F\	.	[2c\	.
=117	=117	=117	=117
2BB-/	1F]	2c\]	1r
2D\	.	2.B-\	.
1C	1E-i	.	1c
.	.	4A/	.
.	.	2A/	.
=118	=118	=118	=118
0BB-	[0F	0B-	0d
=119	=119	=119	=119
0r	0F]	0r	2c\
.	.	.	2.A/
.	.	.	4B-\
.	.	.	2c\
=120	=120	=120	=120
0r	1F	0r	2F/
.	.	.	1f
.	1G	.	.
.	.	.	2e\
=121	=121	=121	=121
0r	2G\	0r	2d\
.	2.E\	.	2.g\
.	4F\	.	4f\
.	2G\	.	2d\
=122	=122	=122	=122
0r	2C/	0r	2e\
.	1F	.	2c\
.	.	.	2d\
.	2E\	.	[2c\
=123	=123	=123	=123
0r	1F	0r	2c\]
.	.	.	1f
.	1G	.	.
.	.	.	2e\
=124	=124	=124	=124
1r	0F	1r	1f
1BB-	.	1B-	1d
=125	=125	=125	=125
1.BB-	0r	1.d	1.f
2BB-/	.	2d\	2f\
=126	=126	=126	=126
1C	[0G	1c	1e
1GG	.	1B-	1d
=127	=127	=127	=127
0C	1G]	1c	1e
.	1G	2r	2r
.	.	2c\	2e\
=128	=128	=128	=128
1.C	[0G	1.e	1.g
2C/	.	2d\	2f\
=129	=129	=129	=129
1C	0G]	1c	1e
1GG	.	1Bni	1d
=130	=130	=130	=130
0C	1r	0c	0e
.	[1G	.	.
=131	=131	=131	=131
1r	0G_	1r	1r
[1C	.	[1E	[1c
=132	=132	=132	=132
1C]	1G]	1E]	1c]
1FF	1F	1C	1c
=133	=133	=133	=133
0FF	1F	0C	1A
.	[1A	.	[1c
=134	=134	=134	=134
1AA	2A\]	1C	2c\]
.	2F\	.	2A/
2GG/	2G\	2D/	2B-\
2C/	2E\	2C/	2G/
=135	=135	=135	=135
2BB-/	2G\	1D	2B-\
1D	1F	.	1A
.	.	1r	.
[2GG/	[2D\	.	[2G/
=136	=136	=136	=136
2GG/]	2D\]	0r	2G/]
2E-\	2G\	.	2c\
2D\	2F\	.	2B-\
[2C/	[2E\	.	[2A/
=137	=137	=137	=137
4C/]	2E\]	0r	2A/]
4BB-/	.	.	.
4AA/	1D	.	2.G/
4GG/	.	.	.
1AA	.	.	.
.	.	.	4F#i/
.	2C/	.	2F#i/
=138	=138	=138	=138
0GG	0D	0B-	1G
.	.	.	1d
=139	=139	=139	=139
0r	0r	1c	1e
.	.	1c	[1g
=140	=140	=140	=140
0BB-	0D	0d	2g\]
.	.	.	1f
.	.	.	4e\
.	.	.	4d\
=141	=141	=141	=141
0C	1G	2.c\	2.e\
.	.	4B-\	4c\
.	1E	2G/	2.g\
.	.	2A/	.
.	.	.	4f\
=142	=142	=142	=142
[0BB-	1F	2B-\	2d\
.	.	2F/	2B-\
.	1D	[1d	[1f
=143	=143	=143	=143
0BB-]	[0F	2d\]	2f\]
.	.	2c\	2e\
.	.	1B-	1d
=144	=144	=144	=144
1FF	1F]	1A	1c
1GG	1D	1G	1B-
=145	=145	=145	=145
1AA	1C	1F	1A
1BB-	[1G	[1B-	[1G
=146	=146	=146	=146
0C	2G\]	2B-\]	1G]
.	2F\	2A/	.
.	1E	2G/	[1c
.	.	2F/	.
=147	=147	=147	=147
0GG	0D	0G	1c]
.	.	.	1Bni
=148	=148	=148	=148
0Cl	0Cl	0Gl	0cl
==	==	==	==
*-	*-	*-	*-
!!!RDF**kern: l=long note in original notation
!!!RDF**kern: i=editorial accidental
!!!ENC:	Chris Gage 11-26-2012
!!!END:	2013/05/19/
!!!EED:	Jesse Rodin
!!!EEV:	2013/07/16/
!!!ONB:	Translated from MusicXML and edited on 2013/07/16/ by Craig Sapp
!!muse2ps: T^@{OPR}^u^@{ONM}{. }@{OTL}^C^@{COM}^i2I150v85,85,85,150Q16c80
